public/illustrations/_book.svg

<svg width="372" height="127" viewBox="0 0 372 127" fill="none" xmlns="http://www.w3.org/2000/svg">
<path d="M267.995 109.193C269.666 111.204 271.761 112.789 274.154 113.95C276.547 115.111 279.081 115.72 281.63 115.904C287.576 116.131 293.381 116.074 299.328 115.734C309.82 115.168 320.297 114.474 330.93 113.922C340.856 113.356 350.767 113.073 360.536 112.648C362.518 112.676 364.373 112.138 366.214 112.025C369.187 111.784 371.155 113.087 371.679 115.791C372.203 118.354 370.759 120.733 367.913 121.54C366.922 121.809 365.931 121.936 364.925 122.063C351.602 122.729 338.293 123.239 324.828 124.046C313.912 124.598 302.995 125.575 292.093 125.985C287.421 126.198 282.89 125.858 278.232 125.221C270.883 124.272 264.144 120.35 259.698 114.474C258.169 112.464 256.753 112.166 254.474 112.988C240.825 117.037 227.034 120.959 213.385 125.008C210.114 126.099 206.575 126.325 203.177 125.858C192.572 124.286 181.981 123.153 171.518 121.723L92.7817 111.685C77.8019 109.774 62.6803 107.862 47.6863 105.951C35.8072 104.507 23.9425 102.921 12.2049 101.335C10.6475 101.024 9.24551 100.726 7.68806 100.273C3.5962 99.084 2.76086 98.2202 2.39273 93.8311C2.02461 89.4419 1.81227 84.897 1.72731 80.3662C1.10433 64.4944 0.481394 48.4953 0 32.6235C0.0283173 30.6413 0.198304 28.5174 0.792968 26.5494C1.40179 23.5902 3.12895 22.0469 6.25802 20.8151C10.095 19.4559 14.0738 18.3801 18.194 17.8703C38.6391 14.4723 59.0698 11.2298 79.5007 8.11487C91.8471 6.16099 104.194 4.3628 116.398 2.40892C118.097 2.15406 119.669 1.17726 121.382 0.780817C123.095 0.242791 124.794 -0.0262919 126.635 0.00202527C138.372 0.879858 150.252 2.04073 161.989 3.04599L200.458 6.43008L253.922 11.3006L301.579 15.5198C304.836 15.8454 308.22 16.1852 311.618 16.5108C314.025 16.6807 315.851 17.5586 316.517 20.1213C317.197 22.4009 316.46 23.8025 313.883 25.7423C313.317 26.0113 312.878 26.5776 312.595 27.1439C310.839 31.5048 308.503 35.7241 308.432 40.6796C308.362 45.6352 307.724 50.8599 307.795 56.0986C308.107 63.7442 309.848 71.1347 313.147 78.1291C313.416 79.1202 313.968 79.9839 314.662 80.706C315.356 81.4281 316.206 82.0088 317.324 82.3061C319.151 82.9008 320.835 83.9201 322.237 85.067C325.465 87.5164 325.253 91.9054 321.416 93.4062C316.573 95.3176 311.462 96.8042 306.337 98.2909C294.684 101.661 283.159 105.045 271.506 108.273C270.657 108.542 269.793 108.953 268.236 109.505L267.953 109.222L267.995 109.193ZM8.56606 31.0376L8.4952 36.1348C9.2456 53.4224 9.84045 70.8516 10.4493 88.1251C10.5484 91.0984 10.69 91.3816 13.6491 91.7073L43.467 95.53L93.5038 102.043L139.024 107.792L195.276 114.956L198.674 114.998L198.703 112.733C197.683 94.8789 196.664 77.025 195.489 59.2984C195.149 53.7766 196.267 54.0739 189.485 53.2668C174.081 51.3554 158.662 49.5711 143.116 47.6597C117.814 44.4741 92.6544 41.4159 67.3528 38.2302L13.7763 31.5191C12.0773 31.3492 10.3783 31.1933 8.11288 31.0092H8.53771L8.56606 31.0376ZM39.2478 23.9583V24.6662C40.6495 24.9635 42.207 25.2751 43.6229 25.4308C65.8095 28.1493 88.0103 30.8677 110.197 33.6003C135.498 36.786 160.942 39.9859 186.243 43.1716C191.468 43.8087 196.848 43.7522 201.775 46.0883C202.625 46.2441 203.474 46.1165 204.324 45.9891C208.585 44.9131 212.847 43.8511 216.967 42.7751C238.432 36.9842 259.896 31.3492 281.361 25.5584C282.494 25.2894 283.641 24.7371 284.773 24.4681C282.522 23.5903 280.257 23.1231 277.85 23.0948C268.377 22.2594 258.905 21.4099 249.419 20.5745C223.537 18.2242 197.655 15.8739 171.914 13.5236C160.177 12.5041 148.298 11.3431 136.56 10.3379C133.87 10.0122 131.18 9.9838 128.49 10.2245C115.86 12.0226 103.372 14.1183 90.743 16.058L51.8633 22.0187C47.6016 22.67 43.354 23.4487 39.0922 24.1L39.2336 23.9583H39.2478ZM301.268 30.2308C300.135 30.3582 299.286 30.4854 298.564 30.7545C274.537 37.2108 250.382 43.6672 226.355 49.9819C222.376 51.058 219.516 52.5731 218.893 56.8207L218.865 58.3779C222.249 59.6946 225.618 61.0255 229.144 62.2006C237.88 65.3014 245.582 70.9365 251.005 78.5114C255.026 84.373 258.622 90.8011 261.496 97.3565C261.907 98.2061 262.459 99.0699 263.011 100.358L308.078 87.2616C297.997 68.997 297.275 50.0103 301.24 30.2449L301.268 30.2308ZM213.796 67.2128C213.357 67.9208 213.06 68.7563 212.776 69.4642C210.851 75.6656 210.044 82.3059 210.667 88.833C211.261 96.3513 213.145 103.459 217.732 109.604C219.261 111.614 220.804 112.478 223.65 111.671C232.613 108.825 241.561 106.404 250.523 103.841C251.231 103.572 252.095 103.162 252.803 102.737C250.382 93.6471 245.398 85.4917 238.545 79.3185C231.692 72.9896 223.112 68.7561 213.937 67.2128H213.796Z" fill="#102185"/>
<path d="M33.98 45.9743C52.2164 48.2114 70.4529 50.4626 88.6892 52.6996C105.085 54.6252 121.339 56.5649 137.593 58.632C148.623 59.9205 159.496 61.3507 170.526 62.7807C171.376 62.7807 172.084 62.809 172.792 63.0922C174.066 63.3895 175.043 64.1115 175.737 65.1168C176.43 66.122 176.699 67.3963 176.529 68.6706C176.529 69.2369 176.232 69.8032 175.935 70.3554C175.637 70.9076 175.213 71.3325 174.788 71.6157C174.363 72.0404 173.783 72.1678 173.216 72.2953C172.65 72.4227 172.084 72.4227 171.517 72.2669C167.128 71.9271 162.895 71.2899 158.505 70.8085C134.62 67.9202 110.72 65.032 86.9758 62.1437C68.5978 59.9066 50.22 57.6553 31.842 55.2766C30.5678 55.2625 29.2934 54.8092 28.1748 54.3703C27.1837 53.9314 26.49 53.2096 26.0794 52.2185C25.6688 51.2274 25.5413 50.222 25.6971 49.245C25.6971 48.2539 26.292 47.4185 27.0141 46.7106C27.7361 46.1584 28.7271 45.7479 29.7182 45.7621L33.9658 45.8188V45.9601L33.98 45.9743Z" fill="#102185"/>
<path d="M34.1791 71.6168C52.2739 73.8539 70.3684 76.0909 88.4632 78.3279C104.576 80.2535 120.83 82.1789 137.098 84.1186C147.42 85.3929 157.883 86.5399 168.063 87.8141C169.196 87.8283 170.329 88.1257 171.447 88.5646C172.438 89.0035 173.274 89.7256 173.826 90.7167C174.378 91.7078 174.647 92.8546 174.35 93.8457C174.35 94.4121 174.194 94.9785 173.897 95.4033C173.599 95.8281 173.316 96.2385 172.891 96.6633C172.467 97.088 171.886 97.2154 171.461 97.357C170.895 97.4844 170.328 97.4846 169.762 97.4704C166.081 97.2722 162.414 96.8049 158.591 96.3235C134.564 93.4351 110.664 90.5466 86.6366 87.6582C68.5419 85.4212 50.4473 83.1843 32.3526 81.0888C29.9456 80.7773 28.119 79.8996 27.2978 77.62C27.0288 76.7705 26.9013 75.9208 27.1986 74.9297C27.3544 74.0802 27.9349 73.245 28.6428 72.6787C30.2286 71.1496 32.1969 71.4611 34.1791 71.631V71.6168Z" fill="#102185"/>
</svg>

<svg xmlns="http://www.w3.org/2000/svg" width="372" height="127" fill="none" viewBox="0 0 372 127"><path fill="#102185" d="M267.995 109.193c1.671 2.011 3.766 3.596 6.159 4.757s4.927 1.77 7.476 1.954c5.946.227 11.751.17 17.698-.17 10.492-.566 20.969-1.26 31.602-1.812 9.926-.566 19.837-.849 29.606-1.274 1.982.028 3.837-.51 5.678-.623 2.973-.241 4.941 1.062 5.465 3.766.524 2.563-.92 4.942-3.766 5.749-.991.269-1.982.396-2.988.523-13.323.666-26.632 1.176-40.097 1.983-10.916.552-21.833 1.529-32.735 1.939-4.672.213-9.203-.127-13.861-.764-7.349-.949-14.088-4.871-18.534-10.747-1.529-2.01-2.945-2.308-5.224-1.486-13.649 4.049-27.44 7.971-41.089 12.02-3.271 1.091-6.81 1.317-10.208.85-10.605-1.572-21.196-2.705-31.659-4.135l-78.736-10.038c-14.98-1.911-30.102-3.823-45.096-5.734-11.879-1.444-23.743-3.03-35.481-4.616-1.557-.311-2.96-.609-4.517-1.062-4.092-1.189-4.927-2.053-5.295-6.442s-.58-8.934-.666-13.465C1.104 64.494.481 48.496 0 32.624c.028-1.983.198-4.107.793-6.075.609-2.959 2.336-4.502 5.465-5.734 3.837-1.36 7.816-2.435 11.936-2.945a4632 4632 0 0 1 61.307-9.755c12.346-1.954 24.693-3.752 36.897-5.706 1.699-.255 3.271-1.232 4.984-1.628a16.3 16.3 0 0 1 5.253-.779c11.737.878 23.617 2.039 35.354 3.044l38.469 3.384 53.464 4.87 47.657 4.22c3.257.325 6.641.665 10.039.99 2.407.17 4.233 1.049 4.899 3.611.68 2.28-.057 3.682-2.634 5.621-.566.27-1.005.836-1.288 1.402-1.756 4.36-4.092 8.58-4.163 13.536-.07 4.955-.708 10.18-.637 15.419.312 7.645 2.053 15.036 5.352 22.03.269.991.821 1.855 1.515 2.577s1.544 1.303 2.662 1.6c1.827.595 3.511 1.614 4.913 2.761 3.228 2.45 3.016 6.838-.821 8.34-4.843 1.91-9.954 3.397-15.079 4.884-11.653 3.37-23.178 6.754-34.831 9.982-.849.269-1.713.68-3.27 1.232l-.283-.283zM8.566 31.038l-.07 5.097c.75 17.287 1.344 34.717 1.953 51.99.1 2.973.241 3.257 3.2 3.582l29.818 3.823 50.037 6.513 45.52 5.749 56.252 7.164 3.398.042.029-2.265c-1.02-17.854-2.039-35.708-3.214-53.435-.34-5.521.778-5.224-6.004-6.031-15.404-1.912-30.823-3.696-46.369-5.607-25.302-3.186-50.462-6.244-75.763-9.43l-53.577-6.71c-1.699-.17-3.398-.327-5.663-.51h.425zm30.682-7.08v.708c1.402.297 2.959.61 4.375.765 22.187 2.718 44.387 5.437 66.574 8.17l76.046 9.57c5.225.638 10.605.581 15.532 2.917.85.156 1.699.029 2.549-.099 4.261-1.076 8.523-2.138 12.643-3.214 21.465-5.79 42.929-11.426 64.394-17.217 1.133-.269 2.28-.82 3.412-1.09-2.251-.878-4.516-1.345-6.923-1.373-9.473-.836-18.945-1.685-28.431-2.52-25.882-2.35-51.764-4.701-77.505-7.051-11.737-1.02-23.616-2.18-35.354-3.186a38.4 38.4 0 0 0-8.07-.113c-12.63 1.798-25.118 3.893-37.747 5.833l-38.88 5.96c-4.261.652-8.509 1.43-12.77 2.082l.14-.142zm262.02 6.273c-1.133.127-1.982.254-2.704.523-24.027 6.457-48.182 12.913-72.209 19.228-3.979 1.076-6.839 2.591-7.462 6.839l-.028 1.557c3.384 1.317 6.753 2.648 10.279 3.823 8.736 3.1 16.438 8.735 21.861 16.31a116 116 0 0 1 10.491 18.846c.411.85.963 1.713 1.515 3.001l45.067-13.096c-10.081-18.265-10.803-37.252-6.838-57.017zm-87.472 36.982c-.439.708-.736 1.543-1.02 2.251-1.925 6.202-2.732 12.842-2.109 19.369.594 7.518 2.478 14.626 7.065 20.771 1.529 2.01 3.072 2.874 5.918 2.067 8.963-2.846 17.911-5.267 26.873-7.83a15 15 0 0 0 2.28-1.104c-2.421-9.09-7.405-17.245-14.258-23.418-6.853-6.33-15.433-10.563-24.608-12.106z"/><path fill="#102185" d="M33.98 45.974c18.236 2.237 36.473 4.489 54.71 6.726 16.395 1.925 32.649 3.865 48.903 5.932 11.03 1.288 21.903 2.719 32.933 4.149.85 0 1.558.028 2.266.311 1.274.297 2.251 1.02 2.945 2.025.693 1.005.962 2.28.792 3.554 0 .566-.297 1.132-.594 1.684a3.56 3.56 0 0 1-1.147 1.26c-.425.425-1.005.553-1.572.68a3.45 3.45 0 0 1-1.699-.028c-4.389-.34-8.622-.977-13.012-1.459-23.885-2.888-47.785-5.776-71.53-8.664-18.377-2.237-36.755-4.489-55.133-6.867-1.274-.014-2.549-.468-3.667-.907-.991-.439-1.685-1.16-2.096-2.151-.41-.992-.538-1.997-.382-2.974 0-.991.595-1.826 1.317-2.534.722-.553 1.713-.963 2.704-.949l4.248.057v.141zM34.18 71.617l54.283 6.71c16.113 1.927 32.367 3.852 48.635 5.792 10.322 1.274 20.785 2.42 30.965 3.695 1.133.014 2.266.312 3.384.75a5 5 0 0 1 2.379 2.153c.552.99.821 2.138.524 3.129 0 .566-.156 1.132-.453 1.557s-.581.835-1.006 1.26c-.424.425-1.005.552-1.43.694-.566.127-1.133.128-1.699.113-3.681-.198-7.348-.665-11.171-1.147-24.027-2.888-47.927-5.776-71.954-8.665-18.095-2.237-36.19-4.474-54.284-6.57-2.407-.31-4.234-1.188-5.055-3.468-.27-.85-.397-1.7-.1-2.69.156-.85.737-1.685 1.445-2.251 1.586-1.53 3.554-1.218 5.536-1.048z"/></svg>
